X: 20932
T: FIVE TIMES BY THE TAPER'S LIGHT
Q: "Andante"
%R: march
B: "Edinburgh Repository of Music" v.2 p.93 #2
F: http://digital.nls.uk/special-collections-of-printed-music/pageturner.cfm?id=87776133
Z: 2015 John Chambers <jc:trillian.mit.edu>
M: C
L: 1/8
K: D
d2 |\
d6 d>d | e2e2 e2e2 | f4 a4 | e2e2 e2e2 |\
d4 z2d2 | f2f2 z2f2 | e4 d4 | c4 z4 |\
e2e>f g2zg | d2d>e f2z^g | a2e2 f2d2 | e4 e4 |\
c4 z4 :|
d4 z4 | f4 z2f>g | a2a2 b2b2 | a4 z2ad' |\
c'2b2 a2g2 | f4 z2a2 | b2a2 g2f2 | e4 z2e2 |\
f4 z2e2 | f8 | a8 | e8 |\
d6 |]

%%sep 2 1 500
%%sep 1 1 500

